X: 1376
T: Dancing in the Dirt
B: australian traditional tunes wiki
M:6/8
L:1/8
R: March
Q: 3/8=100
K:G
V:1 
|"G"BGD B,DG|A2GB,2G|"D7"FED E2c|"C"E3-E2D|"D7"cAF DFc|B2A C2D|"D"FAF EDC|"G"B,DGB2A|
"G"BGD B,DG|A2GB,2G|"D7"FEDc2A|"C"E3-E2E|cBA GFE|"D"FAFA,2B,|"D7"CD2B2A|"G"G6||
"G"BB,C DEF|G2AB3|BABc3|"C"E6|"D7"AcA GBG|FAFE3|"D"F2FE2D|"C"E2B, "G"D3|
"G"GB,C DEF|G2FB,3|BAB e2d|"C"c3-c2A|EDE "D7"cAF|"G"DED dBG|"D"FEDB2A|"G"G6||
% abcbook-tune_id 6342d53a08e86865d45a276f


% abcbook-boost 0
% abcbook-tablature 
% abcbook-transpose 
% abcbook-lastupdated 1665324361913
% abcbook-soundfonts 
% abcbook-repeats 1
% NFF Book 2017

